copay-sec-1.svg

<?xml version="1.0" encoding="utf-8"?>
<!-- Generator: Adobe Illustrator 18.1.0, SVG Export Plug-In . SVG Version: 6.00 Build 0)  -->
<!DOCTYPE svg PUBLIC "-//W3C//DTD SVG 1.1//EN" "http://www.w3.org/Graphics/SVG/1.1/DTD/svg11.dtd">
<svg version="1.1" id="Layer_1" xmlns="http://www.w3.org/2000/svg" xmlns:xlink="http://www.w3.org/1999/xlink" x="0px" y="0px"
	 viewBox="0 0 960 560" enable-background="new 0 0 960 560" xml:space="preserve">
<rect y="0" fill="#16A085" width="960" height="560"/>
<path fill="#FFFFFF" d="M849.5,143.6c-0.1-1.2,0-2.3,0.1-3.4c0.1-1.1,0.3-2.2,0.5-3.4l4.8-24.4c-1.4-0.6-3.1-1.1-5-1.3
	c-1.9-0.2-3.6-0.3-5-0.2c-4.8,0.3-8.9,1.3-12.4,3c-3.5,1.8-6.4,4-8.6,6.7c-2.2,2.7-3.9,5.7-4.9,9c-1,3.3-1.4,6.7-1.3,10.1
	c0.1,2.1,0.5,4,1.1,5.7c0.6,1.7,1.4,3.2,2.6,4.4c1.1,1.2,2.5,2.1,4.2,2.8c1.7,0.6,3.7,0.9,6,0.8c2.8-0.1,5.2-0.8,7.1-1.9
	c1.9-1.1,3.4-2.2,4.5-3.3c0.2,0.8,0.4,1.5,0.7,2.2c0.3,0.7,0.6,1.3,0.9,1.8l6.4-1.3c-0.6-1.4-1-2.6-1.3-3.8
	C849.8,145.9,849.6,144.8,849.5,143.6z M842.9,136.6c-0.2,1-0.3,1.9-0.4,2.9s-0.1,1.9-0.1,2.7c-1.1,1.3-2.4,2.4-3.9,3.4
	s-3.4,1.6-5.6,1.7c-1.5,0.1-2.7-0.1-3.6-0.6c-1-0.5-1.7-1.1-2.3-2s-1-1.8-1.3-2.9c-0.3-1.1-0.4-2.2-0.5-3.2c-0.1-2.7,0.2-5.3,1-7.9
	c0.8-2.5,2-4.8,3.6-6.7c1.6-2,3.6-3.6,6-4.8c2.4-1.3,5-2,8.1-2.1c0.5,0,1,0,1.6,0c0.6,0,1,0.1,1.3,0.2L842.9,136.6z"/>
<path fill="#FFFFFF" d="M800.5,155.2c-4,0.2-6.9-0.5-8.8-2.1c-1.9-1.6-3-4-3.2-7.2c-0.1-2.1,0.1-4.8,0.7-8.1l6.7-34.6l7.6-1.6
	l-2.4,12.5l14-0.7l-1.2,6.1l-14,0.7l-3.4,17.9c-0.5,2.4-0.7,4.5-0.6,6.3c0.1,1.7,0.6,2.9,1.6,3.6c1,0.7,2.6,1,4.8,0.9
	c1.5-0.1,3-0.4,4.5-1c1.4-0.6,2.6-1.1,3.3-1.5l0.9,6c-0.8,0.5-2.1,1.1-4,1.7C805.1,154.6,802.9,155,800.5,155.2z"/>
<path fill="#FFFFFF" d="M781,120.4c-0.5-1.2-1.3-2.2-2.3-3.1c-1-0.9-2.3-1.5-3.9-2c-1.6-0.5-3.5-0.6-5.6-0.5c-3.7,0.2-7,1.1-9.9,2.8
	c-2.9,1.7-5.3,3.8-7.2,6.5s-3.3,5.7-4.3,9.1c-0.9,3.4-1.3,6.9-1.1,10.4c0.1,1.9,0.5,3.8,1.2,5.5c0.7,1.7,1.8,3.2,3.2,4.4
	c1.4,1.2,3.1,2.2,5.1,2.8c2,0.6,4.3,0.9,7,0.7c3.2-0.2,5.9-0.6,8.2-1.4c2.3-0.8,4-1.5,5-2.1l-0.9-6c-0.3,0.3-0.8,0.6-1.6,0.9
	c-0.7,0.3-1.6,0.6-2.6,1c-1,0.3-2,0.6-3,0.9c-1.1,0.2-2.1,0.4-3.1,0.4c-2.3,0.1-4.1,0-5.5-0.4c-1.4-0.4-2.5-1-3.4-1.7
	c-0.8-0.8-1.4-1.6-1.8-2.7c-0.3-1-0.5-2.1-0.6-3.3l0-0.6c0-0.3,0-0.6,0-1c1.9-0.2,4-0.4,6.2-0.7c2.2-0.2,4.3-0.6,6.4-1.1
	c2.1-0.5,4.1-1.1,6.1-1.8c1.9-0.7,3.6-1.7,5-2.9c1.4-1.2,2.5-2.7,3.3-4.4c0.8-1.7,1.2-3.8,1-6.2C781.9,122.8,781.6,121.6,781,120.4z
	 M773.5,129.7c-1,1.2-2.4,2.2-4.2,3c-1.8,0.8-4,1.4-6.5,1.8s-5.3,0.8-8.3,1c0.4-1.9,1-3.7,1.8-5.4c0.8-1.7,1.8-3.2,3-4.5
	c1.2-1.3,2.6-2.4,4.1-3.3c1.6-0.9,3.3-1.3,5.1-1.4c1.2-0.1,2.1,0,2.9,0.3c0.8,0.2,1.4,0.6,1.9,1c0.5,0.4,0.8,0.9,1,1.4
	c0.2,0.5,0.3,1,0.4,1.4C774.9,126.9,774.4,128.4,773.5,129.7z"/>
<path fill="#FFFFFF" d="M738.7,124.9c-0.6-1.7-1.6-3.2-2.7-4.4c-1.2-1.2-2.6-2.1-4.4-2.7c-1.7-0.6-3.8-0.9-6-0.8
	c-1.8,0.1-3.5,0.4-5,1c-1.6,0.6-2.9,1.3-4.1,2.1l4.1-21.5l-7.6,1.6l-11,57.5c0.7,0.4,1.5,0.7,2.5,0.9c0.9,0.3,1.9,0.5,2.9,0.6
	c1,0.2,2,0.2,2.9,0.3c1,0,1.8,0,2.6,0c4.8-0.3,8.9-1.2,12.4-3c3.5-1.7,6.3-4,8.6-6.7c2.2-2.7,3.8-5.7,4.8-9.1
	c1-3.4,1.4-6.8,1.2-10.3C739.7,128.4,739.3,126.6,738.7,124.9z M731.5,139.4c-0.8,2.5-2,4.8-3.6,6.8c-1.6,2-3.6,3.6-5.9,4.9
	c-2.4,1.3-5,2-8.1,2.2c-0.7,0-1.4,0-2.1,0c-0.7-0.1-1.3-0.1-1.8-0.2l5-26.3c1.3-1,2.7-1.9,4.3-2.5c1.5-0.6,3.1-1,4.7-1.1
	c1.6-0.1,2.9,0.1,4,0.5c1.1,0.4,1.9,1,2.6,1.8c0.6,0.8,1.1,1.7,1.4,2.8c0.3,1.1,0.5,2.2,0.5,3.3
	C732.6,134.3,732.3,136.9,731.5,139.4z"/>
<path fill="#FFFFFF" d="M839.6,173.8c-5.3,0.6-10.9,1.8-16.9,3.7c-1.9,0.6-3.6,1.8-5.2,3.4c-1.6,1.7-2.9,3-3.9,4.1
	c-1,1.1-2,3-3.1,5.8c-1.1,2.8-1.9,4.9-2.4,6.5c-0.5,1.5-1.3,4.4-2.4,8.6c-1.2,4.2-2,7.4-2.7,9.6c-4.7,15.9-12.2,32-22.4,48.5
	c-10.2,16.5-19.1,25.1-26.7,25.9c-4,0.4-6.4-2.9-7.2-10.1c-1.5-13.5,1.3-30.5,8.1-51.1c6.9-20.6,14.2-35.1,22.1-43.6
	c1.1-1.4,1.7-2.5,1.6-3.4c-0.1-0.8-0.6-1.2-1.4-1.1c-11.2,1.2-19.9,3.5-26.1,7c-6.2,3.4-11.7,10.2-16.8,20.4
	c-3.9,7.9-7.2,17.7-10.1,29.6c-14.2,34.1-27.1,51.8-38.7,53c-3.8,0.4-6-2.1-6.6-7.6c-1.1-10.5,2.1-27.9,9.8-52.1
	c7.7-24.2,14.7-39.5,21.1-45.9l-3.2,0.3l-15.9,1.4c-4.2,0.5-8.6,2.7-13.1,6.8c-4.5,4.1-7.6,8.7-9.4,13.8c-2.6-6.5-7.1-11-13.3-13.4
	c-6.3-2.4-12.8-3.3-19.5-2.5c-14.4,1.6-27,8.3-38,20.3c-10.9,11.9-18.8,25.9-23.6,41.7c-0.1,0.3-0.2,0.6-0.3,0.9
	c-0.7,1.6-1.6,3.4-2.4,5.3c-5.4,11.8-9.6,20.2-12.7,25.2c-5.7,9.1-12.6,17.7-20.8,25.6c-8.2,7.9-16.7,12.4-25.4,13.3l-2.5,0.3
	c12.8-10.8,23.3-25.1,31.6-43.1c8.3-18,11.6-34.9,9.9-51c-2.1-19.4-10.2-28.3-24.4-26.8c-15,1.6-31,16.6-47.8,44.8
	c8.3-22.2,15.3-35.8,21-40.6l-9.5,1c-12.5,1.3-21,4.8-25.5,10.4c-2.2,3-5.4,11.3-9.3,25c-1.4,4.9-3.3,12.1-5.8,21.5
	c-7.5,17.2-16.4,26.3-26.7,27.4c-5.9,0.6-10.7-1.1-14.4-5.2c3.2-11.7,4.3-22.5,3.2-32.7c-2.9-26.6-16.9-38.5-42.1-35.8
	c-15,1.6-28.1,8.1-39.2,19.6c-6.7,6.9-12.2,14.4-16.4,22.5c0-0.1,0.1-0.2,0.1-0.3c-10.2,19.1-27.8,52.3-49.9,71.3
	c-22.1,19-43.9,29.7-65.3,32c-34.3,3.7-53.5-13.2-57.5-50.7c-2.6-24.2,1.1-48.8,11.2-73.6c10.1-24.9,24.6-45.8,43.5-62.7
	s39.2-26.6,60.8-29c16.3-1.8,25.1,3.5,26.4,15.7c0.9,8-1.9,15.2-8.3,21.7c-6.4,6.4-13.7,10.1-21.9,11c-3,0.3-5.7,0.2-8.1-0.4
	c-2.2,3.9-3.1,7.4-2.7,10.5c0.3,3.2,2.1,5.6,5.3,7.3c3.2,1.7,7.1,2.3,11.8,1.8c9.9-1.1,19.2-5.1,27.8-12
	c8.6-6.9,14.1-14.8,16.5-23.9c1.2-4.8,1.6-9.1,1.2-12.9c-1.1-10.3-7.2-18.3-18.3-23.8s-26.4-7.2-45.8-5.1
	c-19.5,2.1-38.6,9.5-57.5,22.2c-18.9,12.7-34.1,27.9-45.6,45.7c-11.6,17.8-20.2,36.6-26,56.5c-5.8,19.9-7.7,38.6-5.8,56.1
	c5,46.2,32.3,66.6,82.1,61.2c21.4-2.3,41.9-8.7,61.5-19.3c19.6-10.5,35.5-23.6,47.5-39c1.9-2.5,3.6-4.9,5.3-7.2
	c0.1,1.8,0.2,3.5,0.4,5.3c1.4,13.2,5.8,22.6,13.2,28.3c7.4,5.7,16.3,8,26.9,6.8c16.5-1.8,29.5-7.6,39.1-17.3s17.3-22.6,23.3-38.3
	c5.5,3.5,11.8,4.8,18.9,4c6.1-0.7,12.3-3.8,18.7-9.5c-3.1,12.7-6.6,27.4-10.6,44.3c-11.6,49.1-19.7,78-24.4,86.6l15.2-1.6
	c4.2-0.5,7.7-1.4,10.3-2.7c2.6-1.4,4.9-4,6.7-7.9c1.8-3.9,4.2-12.3,7.1-25.2l11.8-57.2c3.7,10.1,15.6,14,36,11.8
	c20.3-2.2,37.2-10.5,50.6-25c8.3-8.9,15.9-19.8,23-32.5c-0.2,5.1,0,10.2,0.5,15.3c2.1,19.4,10.2,28.3,24.4,26.8
	c20.5-2.2,40.6-25.9,60.1-71.1c-3.1,13.1-3.9,26.2-2.5,39.3c1.9,17.5,8.5,25.6,20,24.4c14.7-1.6,30.7-18.8,48-51.5
	c-0.9,7.8-1.1,14.3-0.6,19.4c0.8,8.8,3.2,15.2,7.1,19.4c3.9,4.2,8.6,5.9,14.2,5.3c5.6-0.6,10.4-1.8,14.4-3.5
	c4-1.7,9.3-6.1,15.9-13.1c6.6-7,14.2-17.3,22.9-30.8l-12.9,50c-8.3,31.8-21.1,48.7-38.2,50.5c-4.4,0.5-8.2-0.3-11.3-2.5
	c-3.1-2.1-4.9-5.2-5.3-9.2c-0.8-7.6,0.6-12.2,4.3-13.9c-1.3-2-3.3-3.7-6-5.1c-2.7-1.4-5.9-1.9-9.6-1.5c-3.7,0.4-6.8,2.6-9.2,6.6
	c-2.5,4-3.4,8.3-2.9,13c1,8.9,5.4,14.9,13.4,18.2c8,3.3,17.2,4.4,27.8,3.2c10.6-1.1,20.8-4.9,30.6-11.1c9.8-6.3,17.7-14.1,23.8-23.5
	s10.9-21.8,14.6-37.1c1.4-5.1,3.1-12.2,5.2-21.5c2.1-9.3,3.5-15.1,4-17.5c0.6-2.4,2.2-9.2,4.9-20.5c2.6-11.3,6-23.8,10.1-37.7
	c5.1-16.5,10.7-27.2,16.8-31.9L839.6,173.8z M394.1,248.1c-5.3,0.6-9.3,2.7-12,6.4c-2.7,3.7-3.8,8.4-3.1,14.1
	c1,9.3,5.4,16.6,13.3,21.9c-4,12.2-9.4,23.5-16.1,33.9c-6.7,10.4-14.6,16.1-23.7,17.1c-11.1,0.6-17.3-5.5-18.7-18.1
	c-1.4-12.6,0.9-27.2,6.9-43.6c10.9-29.8,23.7-45.4,38.3-47c9.3-1,15,4,17,15.1L394.1,248.1z M474.9,329.6c-6.1,0.7-9.7-4-10.8-13.9
	c-1.1-9.9,2.4-23.2,10.5-39.8c8.1-16.6,16.1-28.8,24-36.5c4.8-4.8,9.5-7.4,13.9-7.9c1.3-0.1,2.2-0.1,2.9,0c3.3,0.5,5.2,3.4,5.8,8.7
	c1.3,12.2-3.3,29.9-13.9,53C496.7,316.3,485.9,328.4,474.9,329.6z M643.3,259.3c-4.9,9.9-10.7,18.7-17.4,26.3
	c-6.7,7.6-12.8,11.8-18.3,12.4c-5.1,0.5-8-2.4-8.7-9c-1.6-15.2,3.1-33.1,14.1-53.8c11-20.7,23.5-31.8,37.5-33.3
	c7.8-0.8,13.2,2,16,8.5C661.9,220.9,654.2,237.2,643.3,259.3z"/>
<g>
	<path fill="#FFFFFF" d="M203.1,462.1L203.1,462.1C203.1,462.1,203.1,462.1,203.1,462.1C203.1,462.1,203.1,462.1,203.1,462.1z"/>
	<path fill="#FFFFFF" d="M406.2,371.8c-72.1,12.3-141.3,29.7-190.1,49.7c-20.4,8.3-25.5,25-19.1,40.7c82.9-37.8,124-48.5,184.6-63.5
		c10.7-2.7,19.3-10.7,22.8-21.2C405,375.5,405.6,373.6,406.2,371.8z"/>
</g>
<path fill="#FFFFFF" d="M676,363.6c2.1-9-0.3-9.4-9.5-10.7c-50.3-7.3-105.6-6.8-172.2,7.5c-11.2,2.4-20.4,10.2-22.2,21.6
	C472.1,382,555.7,354.5,676,363.6L676,363.6z"/>
</svg>

<?xml version="1.0" encoding="UTF-8" standalone="no"?>
<svg width="960px" height="560px" viewBox="0 0 960 560" version="1.1" xmlns="http://www.w3.org/2000/svg" xmlns:xlink="http://www.w3.org/1999/xlink" xmlns:sketch="http://www.bohemiancoding.com/sketch/ns">
    <!-- Generator: Sketch 3.3.2 (12043) - http://www.bohemiancoding.com/sketch -->
    <title>copay-sec-1</title>
    <desc>Created with Sketch.</desc>
    <defs></defs>
    <g id="Page-1" stroke="none" stroke-width="1" fill="none" fill-rule="evenodd" sketch:type="MSPage">
        <g id="copay-sec-1" sketch:type="MSLayerGroup">
            <rect id="Rectangle-path" fill="#16A085" sketch:type="MSShapeGroup" x="0" y="0" width="960" height="560"></rect>
            <path d="M839.6,173.8 C834.3,174.4 828.7,175.6 822.7,177.5 C820.8,178.1 819.1,179.3 817.5,180.9 C815.9,182.6 814.6,183.9 813.6,185 C812.6,186.1 811.6,188 810.5,190.8 C809.4,193.6 808.6,195.7 808.1,197.3 C807.6,198.8 806.8,201.7 805.7,205.9 C804.5,210.1 803.7,213.3 803,215.5 C798.3,231.4 790.8,247.5 780.6,264 C770.4,280.5 761.5,289.1 753.9,289.9 C749.9,290.3 747.5,287 746.7,279.8 C745.2,266.3 748,249.3 754.8,228.7 C761.7,208.1 769,193.6 776.9,185.1 C778,183.7 778.6,182.6 778.5,181.7 C778.4,180.9 777.9,180.5 777.1,180.6 C765.9,181.8 757.2,184.1 751,187.6 C744.8,191 739.3,197.8 734.2,208 C730.3,215.9 727,225.7 724.1,237.6 C709.9,271.7 697,289.4 685.4,290.6 C681.6,291 679.4,288.5 678.8,283 C677.7,272.5 680.9,255.1 688.6,230.9 C696.3,206.7 703.3,191.4 709.7,185 L706.5,185.3 L690.6,186.7 C686.4,187.2 682,189.4 677.5,193.5 C673,197.6 669.9,202.2 668.1,207.3 C665.5,200.8 661,196.3 654.8,193.9 C648.5,191.5 642,190.6 635.3,191.4 C620.9,193 608.3,199.7 597.3,211.7 C586.4,223.6 578.5,237.6 573.7,253.4 C573.6,253.7 573.5,254 573.4,254.3 C572.7,255.9 571.8,257.7 571,259.6 C565.6,271.4 561.4,279.8 558.3,284.8 C552.6,293.9 545.7,302.5 537.5,310.4 C529.3,318.3 520.8,322.8 512.1,323.7 L509.6,324 C522.4,313.2 532.9,298.9 541.2,280.9 C549.5,262.9 552.8,246 551.1,229.9 C549,210.5 540.9,201.6 526.7,203.1 C511.7,204.7 495.7,219.7 478.9,247.9 C487.2,225.7 494.2,212.1 499.9,207.3 L490.4,208.3 C477.9,209.6 469.4,213.1 464.9,218.7 C462.7,221.7 459.5,230 455.6,243.7 C454.2,248.6 452.3,255.8 449.8,265.2 C442.3,282.4 433.4,291.5 423.1,292.6 C417.2,293.2 412.4,291.5 408.7,287.4 C411.9,275.7 413,264.9 411.9,254.7 C409,228.1 395,216.2 369.8,218.9 C354.8,220.5 341.7,227 330.6,238.5 C323.9,245.4 318.4,252.9 314.2,261 C314.2,260.9 314.3,260.8 314.3,260.7 C304.1,279.8 286.5,313 264.4,332 C242.3,351 220.5,361.7 199.1,364 C164.8,367.7 145.6,350.8 141.6,313.3 C139,289.1 142.7,264.5 152.8,239.7 C162.9,214.8 177.4,193.9 196.3,177 C215.2,160.1 235.5,150.4 257.1,148 C273.4,146.2 282.2,151.5 283.5,163.7 C284.4,171.7 281.6,178.9 275.2,185.4 C268.8,191.8 261.5,195.5 253.3,196.4 C250.3,196.7 247.6,196.6 245.2,196 C243,199.9 242.1,203.4 242.5,206.5 C242.8,209.7 244.6,212.1 247.8,213.8 C251,215.5 254.9,216.1 259.6,215.6 C269.5,214.5 278.8,210.5 287.4,203.6 C296,196.7 301.5,188.8 303.9,179.7 C305.1,174.9 305.5,170.6 305.1,166.8 C304,156.5 297.9,148.5 286.8,143 C275.7,137.5 260.4,135.8 241,137.9 C221.5,140 202.4,147.4 183.5,160.1 C164.6,172.8 149.4,188 137.9,205.8 C126.3,223.6 117.7,242.4 111.9,262.3 C106.1,282.2 104.2,300.9 106.1,318.4 C111.1,364.6 138.4,385 188.2,379.6 C209.6,377.3 230.1,370.9 249.7,360.3 C269.3,349.8 285.2,336.7 297.2,321.3 C299.1,318.8 300.8,316.4 302.5,314.1 C302.6,315.9 302.7,317.6 302.9,319.4 C304.3,332.6 308.7,342 316.1,347.7 C323.5,353.4 332.4,355.7 343,354.5 C359.5,352.7 372.5,346.9 382.1,337.2 C391.7,327.5 399.4,314.6 405.4,298.9 C410.9,302.4 417.2,303.7 424.3,302.9 C430.4,302.2 436.6,299.1 443,293.4 C439.9,306.1 436.4,320.8 432.4,337.7 C420.8,386.8 412.7,415.7 408,424.3 L423.2,422.7 C427.4,422.2 430.9,421.3 433.5,420 C436.1,418.6 438.4,416 440.2,412.1 C442,408.2 444.4,399.8 447.3,386.9 L459.1,329.7 C462.8,339.8 474.7,343.7 495.1,341.5 C515.4,339.3 532.3,331 545.7,316.5 C554,307.6 561.6,296.7 568.7,284 C568.5,289.1 568.7,294.2 569.2,299.3 C571.3,318.7 579.4,327.6 593.6,326.1 C614.1,323.9 634.2,300.2 653.7,255 C650.6,268.1 649.8,281.2 651.2,294.3 C653.1,311.8 659.7,319.9 671.2,318.7 C685.9,317.1 701.9,299.9 719.2,267.2 C718.3,275 718.1,281.5 718.6,286.6 C719.4,295.4 721.8,301.8 725.7,306 C729.6,310.2 734.3,311.9 739.9,311.3 C745.5,310.7 750.3,309.5 754.3,307.8 C758.3,306.1 763.6,301.7 770.2,294.7 C776.8,287.7 784.4,277.4 793.1,263.9 L780.2,313.9 C771.9,345.7 759.1,362.6 742,364.4 C737.6,364.9 733.8,364.1 730.7,361.9 C727.6,359.8 725.8,356.7 725.4,352.7 C724.6,345.1 726,340.5 729.7,338.8 C728.4,336.8 726.4,335.1 723.7,333.7 C721,332.3 717.8,331.8 714.1,332.2 C710.4,332.6 707.3,334.8 704.9,338.8 C702.4,342.8 701.5,347.1 702,351.8 C703,360.7 707.4,366.7 715.4,370 C723.4,373.3 732.6,374.4 743.2,373.2 C753.8,372.1 764,368.3 773.8,362.1 C783.6,355.8 791.5,348 797.6,338.6 C803.7,329.2 808.5,316.8 812.2,301.5 C813.6,296.4 815.3,289.3 817.4,280 C819.5,270.7 820.9,264.9 821.4,262.5 C822,260.1 823.6,253.3 826.3,242 C828.9,230.7 832.3,218.2 836.4,204.3 C841.5,187.8 847.1,177.1 853.2,172.4 L839.6,173.8 L839.6,173.8 Z M394.1,248.1 C388.8,248.7 384.8,250.8 382.1,254.5 C379.4,258.2 378.3,262.9 379,268.6 C380,277.9 384.4,285.2 392.3,290.5 C388.3,302.7 382.9,314 376.2,324.4 C369.5,334.8 361.6,340.5 352.5,341.5 C341.4,342.1 335.2,336 333.8,323.4 C332.4,310.8 334.7,296.2 340.7,279.8 C351.6,250 364.4,234.4 379,232.8 C388.3,231.8 394,236.8 396,247.9 L394.1,248.1 L394.1,248.1 Z M474.9,329.6 C468.8,330.3 465.2,325.6 464.1,315.7 C463,305.8 466.5,292.5 474.6,275.9 C482.7,259.3 490.7,247.1 498.6,239.4 C503.4,234.6 508.1,232 512.5,231.5 C513.8,231.4 514.7,231.4 515.4,231.5 C518.7,232 520.6,234.9 521.2,240.2 C522.5,252.4 517.9,270.1 507.3,293.2 C496.7,316.3 485.9,328.4 474.9,329.6 L474.9,329.6 Z M643.3,259.3 C638.4,269.2 632.6,278 625.9,285.6 C619.2,293.2 613.1,297.4 607.6,298 C602.5,298.5 599.6,295.6 598.9,289 C597.3,273.8 602,255.9 613,235.2 C624,214.5 636.5,203.4 650.5,201.9 C658.3,201.1 663.7,203.9 666.5,210.4 C661.9,220.9 654.2,237.2 643.3,259.3 L643.3,259.3 Z" id="Shape" fill="#FFFFFF" sketch:type="MSShapeGroup"></path>
            <g id="Group" transform="translate(194.000000, 371.000000)" fill="#FFFFFF" sketch:type="MSShapeGroup">
                <path d="M212.2,0.8 C140.1,13.1 70.9,30.5 22.1,50.5 C1.7,58.8 -3.4,75.5 3,91.2 C85.9,53.4 127,42.7 187.6,27.7 C198.3,25 206.9,17 210.4,6.5 C211,4.5 211.6,2.6 212.2,0.8 L212.2,0.8 Z" id="Shape"></path>
            </g>
            <path d="M676,363.6 C678.1,354.6 675.7,354.2 666.5,352.9 C616.2,345.6 560.9,346.1 494.3,360.4 C483.1,362.8 473.9,370.6 472.1,382 C472.1,382 555.7,354.5 676,363.6 L676,363.6 L676,363.6 Z" id="Shape" fill="#FFFFFF" sketch:type="MSShapeGroup"></path>
        </g>
    </g>
</svg>
